X:1
T:Toccata y fuga en re menor BWV 565
C:J.S. Bach
L:1/16
Q:1/4=220
M:4/4
K:Fmaj
V:1 treble nm="Pipe Organ" snm="OrgL:1/16
V:2 treble 
V:1
 aga2- a8 gfed | ^c4 d4 z8 | aga2- a4 z2 e2f2^c2- | [Q:1/4:500]c2d2- d4 z8 | AGA2- A4 z4 GFED | ^C4 D6 z6 | 
 D,,2^C,2E,2G,2 B,8 | ^C8 D8- | D8 z4 z2[Q:1/4=250] ^C2 | D2E2^C2D2 E2C2D2E2 | 
 ^C2D2E2F2 G2E2F2G2 | E2F2G2E2 F2G2A2B2 | G2A2B2G2 A2B2G2A2- |
 